X: 8
T: Mason's Apron, The
Z: Gabriele
S: https://thesession.org/tunes/74#setting21511
R: reel
M: 4/4
L: 1/8
K: Amaj
|:af|ec~c2 BFAF|EFAB BcBA|FB~B2 cB~B2|cefg ~a3f|
ec~c2 BFAF|EFAB c2Bc|dcde fa{b}af|edcB A2:|
|:AB|{c}BA[eA]A [fA]A[eA]A|{c}BA[eA]A [fA]A[eA]A|df~f2 af~f2|df~f2 afec|
Ac[ec]c [fc]c[ec]c|Ac[ec]c [fc]c[ec]c|dcde fa{b}af|edcB A2:|

